PinkCode/CSS/CSSFont/SentyGoldenBell/SentyGoldenBell.svg

<?xml version="1.0" standalone="no"?>
<!DOCTYPE svg PUBLIC "-//W3C//DTD SVG 1.1//EN" "http://www.w3.org/Graphics/SVG/1.1/DTD/svg11.dtd" >
<svg>
<metadata>
Created by FontForge 20120731 at Wed Apr 26 21:40:40 2017
 By www-data
Copyright (c) Wang Wei, Senty Workshop,  2015. Kunming. All Rights Reserved.
</metadata>
<defs>
<font id="SentyGoldenBell" horiz-adv-x="2200" >
  <font-face 
    font-family="eN~OS"
    font-weight="400"
    font-stretch="normal"
    units-per-em="2048"
    panose-1="3 0 6 0 0 0 0 0 0 0"
    ascent="1638"
    descent="-410"
    bbox="61 -408 2088 1701"
    underline-thickness="150"
    underline-position="-142"
    unicode-range="U+56ED-90CA"
  />
<missing-glyph horiz-adv-x="1172" 
d="M61 81v1290h929v-1290h-929zM133 153h785v1146h-785v-1146z" />
    <glyph glyph-name=".notdef" horiz-adv-x="1172" 
d="M61 81v1290h929v-1290h-929zM133 153h785v1146h-785v-1146z" />
    <glyph glyph-name="uni56ED" unicode="&#x56ed;" 
d="M1502 1701q213 -26 213 -154q82 0 142 -1714q-16 -118 -118 -118q-368 0 -485 201h12q117 -29 117 -48l60 13q171 -13 189 -13q39 24 59 24v189q0 944 -129 1502q-24 12 -36 12q-459 -48 -603 -48q-13 0 -36 -11q-71 28 -71 47v12zM1206 1406l83 -24q0 -89 -177 -106
q-10 0 -95 -35q-150 14 -165 23q-21 -12 -47 -12q0 43 -96 60l-11 23q11 0 11 12q-11 0 -11 11h11q36 0 83 -11q60 0 414 59zM355 1312h11q119 0 119 -190q12 0 12 -47v-556q0 -105 -12 -237q24 -114 24 -319v-36q0 -23 -24 -23h-24q-106 0 -106 237q-12 278 -12 414
q0 58 23 614zM1277 1158q54 -24 60 -48q-130 -201 -202 -283v-143q0 -48 13 -94q-13 -46 -13 -95v-82q8 -36 95 -36h24q154 0 154 296h11l83 -272h12q0 -98 -177 -131q-24 0 -24 -11l-24 11h-118q-128 0 -166 131q24 150 24 189q-12 21 -12 48h-12q-45 -148 -307 -332
q-23 -11 -35 -11q-27 30 -36 118q0 22 71 59q22 46 271 355h-11q-21 -12 -47 -12v47q154 31 154 82q15 0 58 60q-340 -166 -460 -166q-33 5 -48 60q94 73 94 82l25 -11q370 189 543 189zM1005 696q0 -17 -213 -272h13q196 205 212 272h-12zM1301 235q154 -39 154 -83v-11
q-18 -48 -272 -83q-225 -83 -414 -83q-35 64 -35 106q0 124 389 143q52 11 178 11z" />
    <glyph glyph-name="uni57CE" unicode="&#x57ce;" 
d="M1484 1553h12q113 0 260 -154v-47q0 -17 -36 -36h-46q-131 0 -190 237zM1224 1447q165 -125 165 -142q24 0 24 -60q24 0 189 48q83 -12 83 -35q-11 0 -11 -13q23 -3 23 -23q0 -12 -12 -12l12 -23v-12q0 -24 -201 -107v-12q159 -467 260 -579q0 43 118 201q0 47 24 47v-12
l-12 -82h12q23 11 36 11l35 -71l-118 -295q23 0 47 -71h24q0 18 35 130l-12 24q27 177 47 177l13 -83h23v47h12q48 -121 48 -212h-13q0 -12 13 -12l-13 -142q0 -77 13 -237q-44 -35 -83 -35q-81 35 -249 295q-87 -70 -178 -94q-71 16 -118 83h-23v24h35q98 0 202 165
q-162 276 -308 686q-222 -59 -249 -59v-296q195 107 237 107q130 0 130 -177q-67 -474 -130 -474h-83q-142 84 -142 201q-31 10 -35 119h-12q-29 -403 -178 -403h-12q-15 0 -58 60q75 0 129 697v35q-11 44 -11 107l11 47q-23 48 -23 83q33 81 83 107v-36h23q81 0 260 60
l-82 212v36zM467 1340h36q103 0 165 -165q-24 -113 -24 -178h94q36 -12 36 -70q-7 -40 -153 -96q-36 -136 -36 -283v-60q224 166 296 166v-12q-99 -186 -272 -354q-42 -142 -131 -142q-39 9 -70 71q70 248 70 568h-11q-217 -60 -320 -60l-35 48q32 39 355 141q47 28 47 273
q0 30 -71 129q4 24 24 24zM1152 548h-11l-35 23q0 -26 -12 -47q0 -24 130 -236v-12h24q70 258 70 272q-12 23 -12 35q-125 -35 -154 -35z" />
    <glyph glyph-name="uni90CA" unicode="&#x90ca;" horiz-adv-x="2199" 
d="M591 1424h12q146 0 284 -201l118 12h12q141 -23 141 -106l-35 -24l-23 12q-296 -76 -296 -154q-12 -59 -48 -59v-12h13q353 95 414 119q35 -13 35 -24l23 11q49 -23 71 -23l-11 23q82 51 82 96v212q63 -12 72 -12q22 12 35 12q59 -78 59 -201h12q228 59 272 59
q153 -31 153 -106q-71 -126 -200 -296q0 -45 177 -248q23 -107 23 -154v-23q0 -118 -248 -154h-12q-63 23 -177 23q0 -35 -59 -35v-59q47 -211 47 -462q-16 -58 -82 -58h-24q-36 362 -71 934q-12 0 -12 23q17 0 35 35v202q-15 177 -59 177q0 -71 -71 -71q-189 -56 -189 -71
l-59 -212h12q-48 -144 -83 -214q188 -212 343 -212l24 12l23 -12q0 -12 -12 -12l12 -59q0 -27 -58 -36l-25 12l-23 -12l-24 12q-12 0 -36 -12q-46 12 -82 12l-24 -12q-38 0 -213 154h-35q0 -53 -249 -201q-80 -36 -129 -36h-24q-95 0 -95 71h-47v12q260 0 473 319
q-110 164 -189 225q-196 -189 -249 -189q-47 17 -47 35v35h-35v25q70 0 177 200q11 0 142 178v11h-12q-47 -46 -71 -46q-9 0 -71 11l-48 -23q-106 28 -106 118v36q0 20 308 83q189 67 189 82q-47 71 -130 248zM1549 443q0 -95 95 -95q51 0 189 47v48q0 59 -201 283v24
q0 71 35 178h-23q-95 0 -95 -225v-260zM627 750v-24q0 -14 177 -177h12q59 219 59 249h-12q-73 -24 -94 -24q-60 15 -60 35q0 24 35 24v12h-11q-51 0 -106 -95z" />
  </font>
</defs></svg>

<?xml version="1.0" standalone="no"?><!DOCTYPE svg PUBLIC "-//W3C//DTD SVG 1.1//EN" "http://www.w3.org/Graphics/SVG/1.1/DTD/svg11.dtd" ><svg xmlns="http://www.w3.org/2000/svg"><metadata></metadata><defs><font id="fonteditor" horiz-adv-x="2200"><font-face font-family="e°ÑOS" font-weight="400" font-stretch="normal" units-per-em="2048" panose-1="3 0 6 0 0 0 0 0 0 0" ascent="2786" descent="-1170" x-height="0" bbox="61 -408 2088 1701" underline-thickness="150" underline-position="-217" unicode-range="U+56ed-90ca" /><missing-glyph horiz-adv-x="1172" d="M61 81 L61 1371 L990 1371 L990 81 L61 81 ZM133 153 L918 153 L918 1299 L133 1299 L133 153 Z" /><glyph glyph-name="uni56ED" unicode="&#x56ed;" d="M1502 1701 Q1715 1675 1715 1547 Q1797 1547 1857 -167 Q1841 -285 1739 -285 Q1371 -285 1254 -84 L1266 -84 Q1383 -113 1383 -132 L1443 -119 Q1614 -132 1632 -132 Q1671 -108 1691 -108 L1691 81 Q1691 1025 1562 1583 Q1538 1595 1526 1595 Q1067 1547 923 1547 Q910 1547 887 1536 Q816 1564 816 1583 L816 1595 L1502 1701 ZM1206 1406 L1289 1382 Q1289 1293 1112 1276 Q1102 1276 1017 1241 Q867 1255 852 1264 Q831 1252 805 1252 Q805 1295 709 1312 L698 1335 Q709 1335 709 1347 Q698 1347 698 1358 L709 1358 Q745 1358 792 1347 Q852 1347 1206 1406 ZM355 1312 L366 1312 Q485 1312 485 1122 Q497 1122 497 1075 L497 519 Q497 414 485 282 Q509 168 509 -37 L509 -73 Q509 -96 485 -96 L461 -96 Q355 -96 355 141 Q343 419 343 555 Q343 613 366 1169 L355 1312 ZM1277 1158 Q1331 1134 1337 1110 Q1207 909 1135 827 L1135 684 Q1135 636 1148 590 Q1135 544 1135 495 L1135 413 Q1143 377 1230 377 L1254 377 Q1408 377 1408 673 L1419 673 L1502 401 L1514 401 Q1514 303 1337 270 Q1313 270 1313 259 L1289 270 L1171 270 Q1043 270 1005 401 Q1029 551 1029 590 Q1017 611 1017 638 L1005 638 Q960 490 698 306 Q675 295 663 295 Q636 325 627 413 Q627 435 698 472 Q720 518 969 827 L958 827 Q937 815 911 815 L911 862 Q1065 893 1065 944 Q1080 944 1123 1004 Q783 838 663 838 Q630 843 615 898 Q709 971 709 980 L734 969 Q1104 1158 1277 1158 ZM1005 696 Q1005 679 792 424 L805 424 Q1001 629 1017 696 L1005 696 ZM1301 235 Q1455 196 1455 152 L1455 141 Q1437 93 1183 58 Q958 -25 769 -25 Q734 39 734 81 Q734 205 1123 224 Q1175 235 1301 235 Z" /><glyph glyph-name="uni57CE" unicode="&#x57ce;" d="M1484 1553 L1496 1553 Q1609 1553 1756 1399 L1756 1352 Q1756 1335 1720 1316 L1674 1316 Q1543 1316 1484 1553 ZM1224 1447 Q1389 1322 1389 1305 Q1413 1305 1413 1245 Q1437 1245 1602 1293 Q1685 1281 1685 1258 Q1674 1258 1674 1245 Q1697 1242 1697 1222 Q1697 1210 1685 1210 L1697 1187 L1697 1175 Q1697 1151 1496 1068 L1496 1056 Q1655 589 1756 477 Q1756 520 1874 678 Q1874 725 1898 725 L1898 713 L1886 631 L1898 631 Q1921 642 1934 642 L1969 571 L1851 276 Q1874 276 1898 205 L1922 205 Q1922 223 1957 335 L1945 359 Q1972 536 1992 536 L2005 453 L2028 453 L2028 500 L2040 500 Q2088 379 2088 288 L2075 288 Q2075 276 2088 276 L2075 134 Q2075 57 2088 -103 Q2044 -138 2005 -138 Q1924 -103 1756 157 Q1669 87 1578 63 Q1507 79 1460 146 L1437 146 L1437 170 L1472 170 Q1570 170 1674 335 Q1512 611 1366 1021 Q1144 962 1117 962 L1117 666 Q1312 773 1354 773 Q1484 773 1484 596 Q1417 122 1354 122 L1271 122 Q1129 206 1129 323 Q1098 333 1094 442 L1082 442 Q1053 39 904 39 L892 39 Q877 39 834 99 Q909 99 963 796 L963 831 Q952 875 952 938 L963 985 Q940 1033 940 1068 Q973 1149 1023 1175 L1023 1139 L1046 1139 Q1127 1139 1306 1199 L1224 1411 L1224 1447 ZM467 1340 L503 1340 Q606 1340 668 1175 Q644 1062 644 997 L738 997 Q774 985 774 927 Q767 887 621 831 Q585 695 585 548 L585 488 Q809 654 881 654 L881 642 Q782 456 609 288 Q567 146 478 146 Q439 155 408 217 Q478 465 478 785 L467 785 Q250 725 147 725 L112 773 Q144 812 467 914 Q514 942 514 1187 Q514 1217 443 1316 Q447 1340 467 1340 ZM1152 548 L1141 548 L1106 571 Q1106 545 1094 524 Q1094 500 1224 288 L1224 276 L1248 276 Q1318 534 1318 548 Q1306 571 1306 583 Q1181 548 1152 548 Z" /><glyph glyph-name="uni90CA" unicode="&#x90ca;" d="M591 1424 L603 1424 Q749 1424 887 1223 L1005 1235 L1017 1235 Q1158 1212 1158 1129 L1123 1105 L1100 1117 Q804 1041 804 963 Q792 904 756 904 L756 892 L769 892 Q1122 987 1183 1011 Q1218 998 1218 987 L1241 998 Q1290 975 1312 975 L1301 998 Q1383 1049 1383 1094 L1383 1306 Q1446 1294 1455 1294 Q1477 1306 1490 1306 Q1549 1228 1549 1105 L1561 1105 Q1789 1164 1833 1164 Q1986 1133 1986 1058 Q1915 932 1786 762 Q1786 717 1963 514 Q1986 407 1986 360 L1986 337 Q1986 219 1738 183 L1726 183 Q1663 206 1549 206 Q1549 171 1490 171 L1490 112 Q1537 -99 1537 -350 Q1521 -408 1455 -408 L1431 -408 Q1395 -46 1360 526 Q1348 526 1348 549 Q1365 549 1383 584 L1383 786 Q1368 963 1324 963 Q1324 892 1253 892 Q1064 836 1064 821 L1005 609 L1017 609 Q969 465 934 395 Q1122 183 1277 183 L1301 195 L1324 183 Q1324 171 1312 171 L1324 112 Q1324 85 1266 76 L1241 88 L1218 76 L1194 88 Q1182 88 1158 76 Q1112 88 1076 88 L1052 76 Q1014 76 839 230 L804 230 Q804 177 555 29 Q475 -7 426 -7 L402 -7 Q307 -7 307 64 L260 64 L260 76 Q520 76 733 395 Q623 559 544 620 Q348 431 295 431 Q248 448 248 466 L248 501 L213 501 L213 526 Q283 526 390 726 Q401 726 532 904 L532 915 L520 915 Q473 869 449 869 Q440 869 378 880 L330 857 Q224 885 224 975 L224 1011 Q224 1031 532 1094 Q721 1161 721 1176 Q674 1247 591 1424 ZM1549 443 Q1549 348 1644 348 Q1695 348 1833 395 L1833 443 Q1833 502 1632 726 L1632 750 Q1632 821 1667 928 L1644 928 Q1549 928 1549 703 L1549 443 ZM627 750 L627 726 Q627 712 804 549 L816 549 Q875 768 875 798 L863 798 Q790 774 769 774 Q709 789 709 809 Q709 833 744 833 L744 845 L733 845 Q682 845 627 750 Z" /></font></defs></svg>
